X: 203
T: Bahçeye İndim ki Gülleri Derem
C: Fahri Kayahan
O: Turkey
F: http://compmusic.upf.edu/node/140
N: ussak--turku--duyek--bahceye_indim_ki--
N: makam= ussak
N: form= turku
N: usul= duyek = 8/4
M: 8/4
L: 1/16
K: C _2/4B   
Q: 1/4=120
%%MIDI tuningsystem comma53
z2 cd e2 ed gf ed c2 BA  | A_1/4B cd c_2/4B AG d3d d2 d2  | 
w:   |   | 
z2 cd e2 ed gf ed c2 BA  | A_1/4B cd c_2/4B AG A3A A2 A2  | 
w:   |   | 
z2 cd e2 ed gf ed c2 BA  | A_1/4B cd c_2/4B AG d3d d2 d2  | 
w:   |   | 
z2 cd e2 ed gf ed c2 BA  | A_1/4B cd c_2/4B AG A3G ^FG A2  | 
w:   |   | 
z2 ^FG A2 A2 A4 A4  | G2 G2 c2 BA A3G ^FE D2  | \
w:  Bah çe ye  in dim  ki   |  gül le ri  de *  rem   *  SAZ  | 
z2 ^FG A2 A2 A2 A2 A4  | 
w:  Gü lün  ba ha ne siy le   | 
G2 G2 c2 BA A3d cd e2  | z2 cd e2 e2 ee3 e4  | \
w:  yâ ri mi  gö *  rem   *  SAZ  |  Ö lüm_ u cuz  di yor lar   | 
e2 ed gf ed d6 z2  | 
w:  kor ka *  rım_ *  ö *  lem    | 
f14 z2  | fe fg gf ed ed ef fe dc  | \
w:  Ah   |  ah   | 
dc de ed c_1/4B cB cd dc _2/4BA  | 
w:   | 
G2 G2 c2 BA A8  | z2 cd e2 ed gf ed c2 BA  | \
w:  kor ka rım_ ö *  lem    |  Öl me den  yâ *  ri *  *  *  mi   | 
G2 G2 c2 BA A8  | 
w:  bir  da ha  gö *  rem    | 
z2 cd e2 ed gf ed c2 BA  | G2 G2 c2 BA A8  | \
w:  Öl me den  yâ *  ri *  *  *  mi   |  bir  da ha  gö *  rem    | 
z2 cd e2 ed gf ed c2 BA  | 
w:   | 
A_1/4B cd c_2/4B AG d3d d2 d2  | z2 cd e2 ed gf ed c2 BA  | 
w:   |   | 
A_1/4B cd c_2/4B AG A3A A2 A2  | z2 cd e2 ed gf ed c2 BA  | 
w:   |   | 
A_1/4B cd c_2/4B AG d3d d2 d2  | z2 cd e2 ed gf ed c2 BA  | 
w:   |   | 
A_1/4B cd c_2/4B AG A3G ^FG A2  | \
w:   | 
z2 ^FG A2 A2 A4 A4  | G2 G2 c2 BA A3G ^FE D2  | 
w:  Bah çe ye  in dim  ki   |  gül le ri  de *  rem   *  SAZ  | 
z2 ^FG A2 A2 A2 A2 A4  | G2 G2 c2 BA A3d cd e2  | \
w:  Gü lün  ba ha ne siy le   |  yâ ri mi  gö *  rem   *  SAZ  | 
z2 cd e2 e2 ee3 e4  | 
w:  Ö lüm_ u cuz  di yor lar   | 
e2 ed gf ed d6 z2  | f14 z2  | fe fg gf ed ed ef fe dc  | 
w:  kor ka *  rım_ *  ö *  lem    |  Ah   |  ah   | 
dc de ed c_1/4B cB cd dc _2/4BA  | \
w:   | 
G2 G2 c2 BA A8  | 
w:  kor ka rım_ ö *  lem    | 
z2 cd e2 ed gf ed c2 BA  | G2 G2 c2 BA A8  | \
w:  Öl me den  yâ *  ri *  *  *  mi   |  bir  da ha  gö *  rem    | 
z2 cd e2 ed gf ed c2 BA  | 
w:  Öl me den  yâ *  ri *  *  *  mi   | 
G2 G2 c2 BA A8  | |


